X: 1
T:Spottie
M:6/8
L:1/8
K:E
E|E>FEBBB|B>cGA2A/2G/2| F>GFA>AA|A>BF A/2G2G/2F/2|E>FEB>BB|c>cde2G|G2F/2
E/2E>ed|e2EE2||
% Output from ABC2Win  Version 2.1 i on 3/10/2000
